src/resources/ephy-webpage-symbolic.svg

<?xml version="1.0" encoding="UTF-8"?>
<svg height="16px" viewBox="0 0 16 16" width="16px" xmlns="http://www.w3.org/2000/svg">
    <path d="m 7.5 0 c -4.128906 0 -7.5 3.371094 -7.5 7.5 s 3.371094 7.5 7.5 7.5 s 7.5 -3.371094 7.5 -7.5 s -3.371094 -7.5 -7.5 -7.5 z m 0 2 c 0.183594 0 0.382812 0.085938 0.617188 0.320312 c 0.234374 0.242188 0.480468 0.628907 0.691406 1.128907 c 0.371094 0.898437 0.628906 2.152343 0.679687 3.550781 h -3.976562 c 0.046875 -1.398438 0.308593 -2.652344 0.679687 -3.550781 c 0.210938 -0.5 0.457032 -0.886719 0.691406 -1.128907 c 0.234376 -0.234374 0.433594 -0.320312 0.617188 -0.320312 z m -1.855469 0.316406 c -0.144531 0.242188 -0.265625 0.492188 -0.375 0.746094 c -0.4375 1.054688 -0.707031 2.421875 -0.757812 3.9375 h -2.488281 c 0.1875 -2.132812 1.601562 -3.960938 3.621093 -4.683594 z m 3.710938 0 c 2.019531 0.722656 3.433593 2.550782 3.621093 4.683594 h -2.488281 c -0.050781 -1.515625 -0.320312 -2.882812 -0.761719 -3.9375 c -0.105468 -0.253906 -0.226562 -0.503906 -0.367187 -0.746094 z m -7.332031 5.683594 h 2.488281 c 0.050781 1.515625 0.320312 2.882812 0.761719 3.9375 c 0.109374 0.269531 0.234374 0.515625 0.367187 0.746094 c -2.015625 -0.722656 -3.429687 -2.550782 -3.617187 -4.683594 z m 3.488281 0 h 3.976562 c -0.046875 1.398438 -0.308593 2.652344 -0.679687 3.550781 c -0.210938 0.5 -0.457032 0.886719 -0.691406 1.128907 c -0.234376 0.234374 -0.433594 0.320312 -0.617188 0.320312 s -0.382812 -0.085938 -0.617188 -0.320312 c -0.234374 -0.242188 -0.480468 -0.628907 -0.691406 -1.128907 c -0.371094 -0.898437 -0.628906 -2.152343 -0.679687 -3.550781 z m 4.976562 0 h 2.488281 c -0.1875 2.132812 -1.601562 3.960938 -3.621093 4.683594 c 0.144531 -0.242188 0.265625 -0.492188 0.375 -0.746094 c 0.4375 -1.054688 0.707031 -2.421875 0.757812 -3.9375 z m 0 0" fill="#222222"/>
</svg>

<svg height="16" width="16" xmlns="http://www.w3.org/2000/svg"><path d="M7.5 0C3.37 0 0 3.37 0 7.5S3.37 15 7.5 15 15 11.63 15 7.5 11.63 0 7.5 0zm0 2c.183 0 .382.084.617.322.235.239.48.626.69 1.127.373.897.632 2.151.683 3.551H5.51c.05-1.4.31-2.654.683-3.55.21-.502.455-.889.69-1.128C7.118 2.084 7.317 2 7.5 2zm-1.857.318a5.85 5.85 0 0 0-.372.746c-.439 1.054-.71 2.422-.76 3.936H2.024a5.481 5.481 0 0 1 3.62-4.682zm3.714 0A5.481 5.481 0 0 1 12.977 7h-2.489c-.05-1.514-.32-2.882-.76-3.936a5.85 5.85 0 0 0-.37-.746zM2.023 8h2.489c.05 1.514.32 2.882.76 3.936.112.27.235.519.37.746A5.481 5.481 0 0 1 2.024 8zM5.51 8h3.98c-.05 1.4-.31 2.654-.683 3.55-.21.502-.455.889-.69 1.128-.235.238-.434.322-.617.322s-.382-.084-.617-.322c-.235-.239-.48-.626-.69-1.127C5.82 10.654 5.561 9.4 5.51 8zm4.978 0h2.489a5.481 5.481 0 0 1-3.62 4.682 5.85 5.85 0 0 0 .372-.746c.439-1.054.71-2.422.76-3.936z" style="fill:#3d3846"/></svg>
